X:48
T:Polonäs efter Sam Wåhlberg
S:efter Sam Wåhlberg
B:Sam Wåhlbergs notbok, nr 48
B:http://www.smus.se/earkiv/fmk/browselarge.php?lang=sw&katalogid=Ma+10&bildnr=00011
R:Slängpolska
O:Kisa, Östergötland
Z:Nils L
M:3/4
L:1/16
K:Am
A4   c2BA G2E2  | e2ge d2c2 B2A2 | A4   c2BA G2E2 | ABcd  e4   E4  ::
e2c2 c2e2 e2g2  | d2B2 B2d2 d2f2 | c2B2 A2c2 B2A2 | ^G2GA B2G2 E4   |
e2c2 c2e2 e2=g2 | d2B2 B2d2 d2f2 | c2B2 A2a2 g2a2 | cBA^G A4   A,4 :|

